!!!OTL: Es waren einmal drei Reiter gefangn
!!!ARE: Europa, Mitteleuropa, Deutschland
!!!SCT: L0065
!!!YEM: Copyright 1995, estate of Helmut Schaffrath.
**kern
*ICvox
*Ivox
*M4/4
*k[b-e-]
*B-:
{4f
=1
4b-
4b-
4b-
4dd
=2
4b-
4f
4d}
{4f
=3
4.dd
8b-
8dd
8cc
8cc
8a
=4
2b-
4r}
{8b-
8cc
=5
4dd
4dd
8ee-
8dd
8cc
8b-
=6
4.cc
8dd
4cc}
{8f
8a
=7
4cc
4cc
8dd
8cc
8b-
8a
=8
4b-
4f
4d}
{4f
=9
4.dd
8b-
8dd
8cc
8cc
8a
=10
2b-
4r}
==
!!!AGN: Lied
!! ab 1818
!!!ONB: ESAC (Essen Associative Code) Database: ERK5
!!!AMT: simple quadruple
!!!AIN: vox
!!!EED: Helmut Schaffrath
!!!EEV: 1.0
*-
